X: 28490
T: Munlochy Bridge
R: strathspey
M: 4/4
K: Gmajor
g>f|e>d B<A B>A G>B|d>e d<B d2 g>f|e>d B<A B>A G>B|g>e f<d e2 g>f|
e>d B<A B>A G>B|d>e d<B d2 B<d|e>d B<A B>A G>B|g<a f<g e2||
e<g|d>e g>e a>e e<g|d>e d<B d2 d>e|d>e g>e a>e e>f|g>e (3fed e2 e<g|
d>e g>e a>e e<g|d>e d<B d2 g>f|e>d B<A B>A G>B|g>e f<d e2||

